usr/share/icons/elementary-xfce/apps/64/preferences-desktop-accessibility.svg

<?xml version="1.0" encoding="UTF-8" standalone="no"?>
<!-- Created with Inkscape (http://www.inkscape.org/) -->

<svg
   xmlns:dc="http://purl.org/dc/elements/1.1/"
   xmlns:cc="http://creativecommons.org/ns#"
   xmlns:rdf="http://www.w3.org/1999/02/22-rdf-syntax-ns#"
   xmlns:svg="http://www.w3.org/2000/svg"
   xmlns="http://www.w3.org/2000/svg"
   xmlns:xlink="http://www.w3.org/1999/xlink"
   xmlns:sodipodi="http://sodipodi.sourceforge.net/DTD/sodipodi-0.dtd"
   xmlns:inkscape="http://www.inkscape.org/namespaces/inkscape"
   width="64px"
   height="64px"
   id="svg3952"
   version="1.1"
   inkscape:version="0.48.2 r9819"
   sodipodi:docname="preferences-desktop-accessibility.svg">
  <defs
     id="defs3954">
    <linearGradient
       inkscape:collect="always"
       xlink:href="#linearGradient4661"
       id="linearGradient3086"
       gradientUnits="userSpaceOnUse"
       x1="24.693371"
       y1="34.39452"
       x2="24.693371"
       y2="39.173557"
       gradientTransform="matrix(1.5723056,0,0,1.8012335,-5.4307177,-44.170129)" />
    <linearGradient
       id="linearGradient4661"
       inkscape:collect="always">
      <stop
         id="stop4663"
         offset="0"
         style="stop-color:#000000;stop-opacity:1;" />
      <stop
         id="stop4665"
         offset="1"
         style="stop-color:#000000;stop-opacity:0;" />
    </linearGradient>
    <linearGradient
       id="linearGradient3707-319-631-407-324-3-8">
      <stop
         id="stop3760-7-3"
         style="stop-color:#185f9a;stop-opacity:1;"
         offset="0" />
      <stop
         id="stop3762-8-4"
         style="stop-color:#599ec9;stop-opacity:1;"
         offset="1" />
    </linearGradient>
    <linearGradient
       inkscape:collect="always"
       xlink:href="#linearGradient4011"
       id="linearGradient3096"
       gradientUnits="userSpaceOnUse"
       gradientTransform="matrix(1.3243242,0,0,1.3243242,-62.998438,0.4187932)"
       x1="71.204407"
       y1="6.2375584"
       x2="71.204407"
       y2="44.340794" />
    <linearGradient
       id="linearGradient4011">
      <stop
         id="stop4013"
         style="stop-color:#ffffff;stop-opacity:1;"
         offset="0" />
      <stop
         offset="0.507761"
         style="stop-color:#ffffff;stop-opacity:0.23529412;"
         id="stop4015" />
      <stop
         id="stop4017"
         style="stop-color:#ffffff;stop-opacity:0.15686275;"
         offset="0.83456558" />
      <stop
         id="stop4019"
         style="stop-color:#ffffff;stop-opacity:0.39215687;"
         offset="1" />
    </linearGradient>
    <radialGradient
       inkscape:collect="always"
       xlink:href="#linearGradient2867-449-88-871-390-598-476-591-434-148-57-177-3-8"
       id="radialGradient3099"
       gradientUnits="userSpaceOnUse"
       gradientTransform="matrix(0,3.045862,-3.2221586,-8.290368e-8,59.226636,-13.597028)"
       cx="5.0450659"
       cy="8.4497671"
       fx="5.0450659"
       fy="8.4497671"
       r="19.99999" />
    <linearGradient
       id="linearGradient2867-449-88-871-390-598-476-591-434-148-57-177-3-8">
      <stop
         id="stop3750-8-9"
         style="stop-color:#90dbec;stop-opacity:1;"
         offset="0" />
      <stop
         id="stop3752-3-2"
         style="stop-color:#42baea;stop-opacity:1"
         offset="0.26238" />
      <stop
         id="stop3754-7-2"
         style="stop-color:#3689e6;stop-opacity:1;"
         offset="0.704952" />
      <stop
         id="stop3756-9-3"
         style="stop-color:#2b63a0;stop-opacity:1;"
         offset="1" />
    </linearGradient>
    <linearGradient
       inkscape:collect="always"
       xlink:href="#linearGradient3707-319-631-407-324-3-8"
       id="linearGradient3101"
       gradientUnits="userSpaceOnUse"
       gradientTransform="matrix(1.3078136,0,0,1.3078136,0.612476,2.6124726)"
       x1="24"
       y1="44"
       x2="24"
       y2="3.8990016" />
    <linearGradient
       id="linearGradient8838">
      <stop
         id="stop8840"
         style="stop-color:#000000;stop-opacity:1"
         offset="0" />
      <stop
         id="stop8842"
         style="stop-color:#000000;stop-opacity:0"
         offset="1" />
    </linearGradient>
    <radialGradient
       r="10.625"
       fy="4.625"
       fx="62.625"
       cy="4.625"
       cx="62.625"
       gradientTransform="matrix(2.9176471,0,0,0.988234,-150.71765,48.92941)"
       gradientUnits="userSpaceOnUse"
       id="radialGradient3950"
       xlink:href="#linearGradient8838"
       inkscape:collect="always" />
    <linearGradient
       inkscape:collect="always"
       xlink:href="#linearGradient3707-319-631-407-324-3-8-2"
       id="linearGradient3893-5"
       x1="30.957644"
       y1="50.736649"
       x2="30.957644"
       y2="7.5589194"
       gradientUnits="userSpaceOnUse" />
    <linearGradient
       id="linearGradient3707-319-631-407-324-3-8-2">
      <stop
         id="stop3760-7-3-5"
         style="stop-color:#185f9a;stop-opacity:1;"
         offset="0" />
      <stop
         id="stop3762-8-4-4"
         style="stop-color:#599ec9;stop-opacity:1;"
         offset="1" />
    </linearGradient>
    <linearGradient
       id="linearGradient4661-8"
       inkscape:collect="always">
      <stop
         id="stop4663-8"
         offset="0"
         style="stop-color:#000000;stop-opacity:1;" />
      <stop
         id="stop4665-4"
         offset="1"
         style="stop-color:#000000;stop-opacity:0;" />
    </linearGradient>
    <linearGradient
       inkscape:collect="always"
       xlink:href="#linearGradient4661-8"
       id="linearGradient3143"
       gradientUnits="userSpaceOnUse"
       gradientTransform="matrix(1.5723056,0,0,1.8012335,-5.4307177,-44.170129)"
       x1="25.068182"
       y1="38.638695"
       x2="25.068182"
       y2="53.700127" />
  </defs>
  <sodipodi:namedview
     id="base"
     pagecolor="#ffffff"
     bordercolor="#666666"
     borderopacity="1.0"
     inkscape:pageopacity="0.0"
     inkscape:pageshadow="2"
     inkscape:zoom="8.734375"
     inkscape:cx="32"
     inkscape:cy="32"
     inkscape:current-layer="layer1"
     showgrid="true"
     inkscape:document-units="px"
     inkscape:grid-bbox="true"
     inkscape:window-width="1280"
     inkscape:window-height="753"
     inkscape:window-x="0"
     inkscape:window-y="24"
     inkscape:window-maximized="1" />
  <metadata
     id="metadata3957">
    <rdf:RDF>
      <cc:Work
         rdf:about="">
        <dc:format>image/svg+xml</dc:format>
        <dc:type
           rdf:resource="http://purl.org/dc/dcmitype/StillImage" />
        <dc:title></dc:title>
      </cc:Work>
    </rdf:RDF>
  </metadata>
  <g
     id="layer1"
     inkscape:label="Layer 1"
     inkscape:groupmode="layer">
    <path
       inkscape:connector-curvature="0"
       style="opacity:0.3;fill:url(#radialGradient3950);fill-opacity:1;fill-rule:evenodd;stroke:none;stroke-width:0.99999988;marker:none;visibility:visible;display:inline;overflow:visible"
       id="path8836"
       d="m 63,53.499998 c 0,5.79899 -13.879175,10.5 -31,10.5 -17.120825,0 -31,-4.70101 -31,-10.5 0,-5.79899 13.879175,-10.5 31,-10.5 17.120825,0 31,4.70101 31,10.5 l 0,0 z" />
    <path
       inkscape:connector-curvature="0"
       style="color:#000000;fill:url(#radialGradient3099);fill-opacity:1;fill-rule:nonzero;stroke:url(#linearGradient3101);stroke-width:1;stroke-linecap:round;stroke-linejoin:round;stroke-miterlimit:4;stroke-opacity:1;stroke-dasharray:none;stroke-dashoffset:0;marker:none;visibility:visible;display:inline;overflow:visible;enable-background:accumulate"
       id="path2555-7"
       d="M 32.000002,8.5 C 17.929982,8.5 6.5,19.929978 6.5,33.999999 6.5,48.07002 17.929982,59.500004 32.000002,59.5 46.070017,59.5 57.500012,48.07002 57.499999,33.999999 57.499999,19.929978 46.070017,8.5 32.000002,8.5 z" />
    <path
       inkscape:connector-curvature="0"
       style="opacity:0.5;color:#000000;fill:none;stroke:url(#linearGradient3096);stroke-width:1;stroke-linecap:round;stroke-linejoin:round;stroke-miterlimit:4;stroke-opacity:1;stroke-dasharray:none;stroke-dashoffset:0;marker:none;visibility:visible;display:inline;overflow:visible;enable-background:accumulate"
       id="path8655-6"
       d="m 56.499999,33.999132 c 0,13.531412 -10.969831,24.500867 -24.49969,24.500867 -13.531097,0 -24.5003091,-10.969579 -24.5003091,-24.500867 0,-13.530787 10.9692121,-24.4991302 24.5003091,-24.4991302 13.529859,0 24.49969,10.9683432 24.49969,24.4991302 l 0,0 z" />
    <path
       inkscape:connector-curvature="0"
       style="color:#000000;fill:url(#linearGradient3893-5);fill-opacity:1;fill-rule:nonzero;stroke:none;marker:none;visibility:visible;display:inline;overflow:visible;enable-background:accumulate;stroke-width:1px"
       id="path6668-4"
       d="m 36.058469,20.893267 c 0,2.149083 -1.736054,3.893267 -3.87512,3.893267 -2.139067,0 -3.875122,-1.744184 -3.875122,-3.893267 0,-2.149084 1.736055,-3.893268 3.875122,-3.893268 2.139066,0 3.87512,1.744184 3.87512,3.893268 z m 9.671764,4.139805 c -0.179232,0.02918 -0.348589,0.1002 -0.49374,0.207186 L 31.999596,27.314084 18.833991,25.211658 c -0.340332,-0.247996 -0.818822,-0.322258 -1.199102,-0.138139 -0.380282,0.184117 -0.629582,0.620506 -0.634825,1.035762 -0.0048,0.415311 0.259272,0.773474 0.634825,0.966723 l 10.316536,3.288023 -0.07056,7.548193 -3.640288,11.304759 c -0.350605,0.514771 -0.243745,1.175882 0.282144,1.51907 0.525912,0.343238 1.271702,0.238657 1.622342,-0.276173 l 5.874694,-12.202384 5.763801,12.181296 c 0.311664,0.533931 1.006404,0.719406 1.551794,0.414315 0.54539,-0.305087 0.73487,-0.985191 0.423217,-1.519126 L 36.185852,37.980585 36.044802,30.874473 46.506094,27.03556 c 0.422678,-0.290164 0.606302,-0.839489 0.423231,-1.311944 -0.183086,-0.472505 -0.686221,-0.747796 -1.199126,-0.690544 l 3.5e-5,0 z" />
    <path
       style="color:#000000;fill:#ffffff;fill-opacity:1;fill-rule:nonzero;stroke:none;marker:none;visibility:visible;display:inline;overflow:visible;enable-background:accumulate"
       d="m 36.058469,21.893268 c 0.09818,2.516102 -2.646202,4.561473 -5.027053,3.718138 -2.418392,-0.664653 -3.534574,-3.867 -2.061088,-5.894414 1.312259,-2.127954 4.692459,-2.293457 6.202895,-0.299744 0.570593,0.690012 0.888757,1.580664 0.885246,2.47602 z m 9.671764,4.139805 c -1.262708,0.463873 -2.663459,0.486888 -3.987882,0.754614 -3.277422,0.494555 -6.554955,1.064782 -9.832307,1.512097 -4.358684,-0.696041 -8.717369,-1.392083 -13.076053,-2.088125 -1.76279,-1.180191 -2.542,2.009446 -0.594274,2.057113 3.237236,1.031752 6.474472,2.063504 9.711708,3.095256 -0.04192,2.54336 -0.01147,5.098431 -0.09836,7.634514 -1.271761,3.942566 -2.541113,7.907224 -3.815955,11.83481 -0.01466,1.38812 2.122837,1.424931 2.34398,0.136266 1.879554,-3.904042 3.759109,-7.808083 5.638664,-11.712125 1.921267,4.060432 3.842534,8.120864 5.763801,12.181296 0.823374,1.401813 2.867765,-0.11494 1.893347,-1.364324 -1.155747,-3.729581 -2.379497,-7.448023 -3.492853,-11.184547 -0.04642,-2.338482 -0.09283,-4.676963 -0.13925,-7.015444 3.487097,-1.279638 6.974195,-2.559275 10.461292,-3.838913 0.977521,-0.643715 0.373593,-2.172935 -0.775861,-2.002488 z"
       id="path6668"
       inkscape:connector-curvature="0" />
    <path
       inkscape:connector-curvature="0"
       style="font-size:72px;font-style:normal;font-weight:bold;opacity:0.1;fill:none;stroke:url(#linearGradient3086);stroke-width:1;stroke-opacity:1;font-family:Standard Symbols L"
       d="m 32.157214,18.591607 c -2.137475,-0.264076 -4.291036,2.696522 -2.977723,4.930811 1.306649,2.385665 4.98877,2.14175 6.055971,-0.373122 0.850157,-2.276099 -1.049799,-4.684315 -3.078248,-4.557689 z"
       id="path4669" />
    <path
       sodipodi:type="inkscape:offset"
       inkscape:radius="-0.54115099"
       inkscape:original="M 45.71875 26.03125 C 45.539518 26.06043 45.395151 26.143014 45.25 26.25 L 32 28.3125 L 18.84375 26.21875 C 18.503418 25.970754 18.00528 25.878381 17.625 26.0625 C 17.244718 26.246617 17.005243 26.678494 17 27.09375 C 16.9952 27.509061 17.249447 27.869251 17.625 28.0625 L 27.9375 31.375 L 27.875 38.90625 L 24.25 50.21875 C 23.899395 50.733521 24.005361 51.406812 24.53125 51.75 C 25.057162 52.093238 25.80561 51.98358 26.15625 51.46875 L 32.03125 39.25 L 37.78125 51.4375 C 38.092914 51.971431 38.79836 52.148841 39.34375 51.84375 C 39.88914 51.538663 40.061653 50.877685 39.75 50.34375 L 36.1875 38.96875 L 36.03125 31.875 L 46.5 28.03125 C 46.922678 27.741086 47.120571 27.191205 46.9375 26.71875 C 46.754414 26.246245 46.231655 25.973998 45.71875 26.03125 z "
       style="opacity:0.1;color:#000000;fill:none;stroke:url(#linearGradient3143);stroke-width:1;stroke-linecap:butt;stroke-linejoin:miter;stroke-miterlimit:4;stroke-opacity:1;stroke-dasharray:none;stroke-dashoffset:0;marker:none;visibility:visible;display:inline;overflow:visible;enable-background:accumulate"
       id="path3141"
       d="m 17.875,26.5625 c -0.161744,0.07831 -0.341073,0.31926 -0.34375,0.53125 -0.0022,0.190884 0.123097,0.386458 0.34375,0.5 L 28.09375,30.875 a 0.5412051,0.5412051 0 0 1 0.375,0.5 l -0.0625,7.53125 A 0.5412051,0.5412051 0 0 1 28.375,39.0625 L 24.75,50.375 a 0.5412051,0.5412051 0 0 1 -0.0625,0.15625 c -0.198463,0.29139 -0.157472,0.565662 0.125,0.75 0.259265,0.16921 0.650422,0.133633 0.84375,-0.0625 L 25.6875,51.1875 31.53125,39 a 0.5412051,0.5412051 0 0 1 1,0.03125 l 5.71875,12.125 c 0.158749,0.271962 0.549886,0.383138 0.84375,0.21875 0.297187,-0.166244 0.357309,-0.459077 0.1875,-0.75 A 0.5412051,0.5412051 0 0 1 39.21875,50.5 l -3.5625,-11.375 a 0.5412051,0.5412051 0 0 1 0,-0.15625 L 35.5,31.875 a 0.5412051,0.5412051 0 0 1 0.34375,-0.5 L 46.1875,27.59375 c 0.009,-0.0062 -0.0086,-0.02461 0,-0.03125 0.205865,-0.15881 0.331096,-0.446963 0.25,-0.65625 -0.0799,-0.206209 -0.351133,-0.360533 -0.625,-0.34375 -0.01063,6.51e-4 -0.02061,-0.0012 -0.03125,0 -0.05732,0.01258 -0.115912,0.0492 -0.21875,0.125 a 0.5412051,0.5412051 0 0 1 -0.21875,0.09375 l -13.25,2.0625 a 0.5412051,0.5412051 0 0 1 -0.1875,0 L 18.75,26.75 A 0.5412051,0.5412051 0 0 1 18.53125,26.65625 C 18.34235,26.518601 18.024553,26.490091 17.875,26.5625 z" />
  </g>
</svg>

<?xml version="1.0" encoding="UTF-8" standalone="no"?>
<!-- Created with Inkscape (http://www.inkscape.org/) -->
<svg
   xmlns:svg="http://www.w3.org/2000/svg"
   xmlns="http://www.w3.org/2000/svg"
   xmlns:xlink="http://www.w3.org/1999/xlink"
   version="1.0"
   width="64"
   height="64"
   id="svg2522">
  <defs
     id="defs2524">
    <linearGradient
       id="linearGradient8838">
      <stop
         id="stop8840"
         style="stop-color:#000000;stop-opacity:1"
         offset="0" />
      <stop
         id="stop8842"
         style="stop-color:#000000;stop-opacity:0"
         offset="1" />
    </linearGradient>
    <radialGradient
       cx="62.625"
       cy="4.625"
       r="10.625"
       fx="62.625"
       fy="4.625"
       id="radialGradient2507"
       xlink:href="#linearGradient8838"
       gradientUnits="userSpaceOnUse"
       gradientTransform="matrix(2.9176471,0,0,0.988234,-150.71765,48.92941)" />
    <linearGradient
       id="linearGradient2490-182-124">
      <stop
         id="stop2788"
         style="stop-color:#1f4b6a;stop-opacity:1"
         offset="0" />
      <stop
         id="stop2790"
         style="stop-color:#4083c2;stop-opacity:1"
         offset="1" />
    </linearGradient>
    <linearGradient
       x1="18.379412"
       y1="44.980297"
       x2="18.379412"
       y2="3.0816143"
       id="linearGradient2504"
       xlink:href="#linearGradient2490-182-124"
       gradientUnits="userSpaceOnUse"
       gradientTransform="matrix(1.2533672,0,0,1.2533674,1.919184,3.9191687)" />
    <linearGradient
       id="linearGradient3242-187-536">
      <stop
         id="stop2778"
         style="stop-color:#8badea;stop-opacity:1"
         offset="0" />
      <stop
         id="stop2780"
         style="stop-color:#6396cd;stop-opacity:1"
         offset="0.26238" />
      <stop
         id="stop2782"
         style="stop-color:#3b7caf;stop-opacity:1"
         offset="0.66093999" />
      <stop
         id="stop2784"
         style="stop-color:#194c70;stop-opacity:1"
         offset="1" />
    </linearGradient>
    <radialGradient
       cx="23.895569"
       cy="3.9900031"
       r="20.397499"
       fx="23.895569"
       fy="3.9900031"
       id="radialGradient2502"
       xlink:href="#linearGradient3242-187-536"
       gradientUnits="userSpaceOnUse"
       gradientTransform="matrix(0,2.9913581,-3.9485396,0,47.754682,-64.903143)" />
    <linearGradient
       id="linearGradient4873">
      <stop
         id="stop4875"
         style="stop-color:#ffffff;stop-opacity:1"
         offset="0" />
      <stop
         id="stop4877"
         style="stop-color:#ffffff;stop-opacity:0"
         offset="1" />
    </linearGradient>
    <linearGradient
       x1="63.397362"
       y1="-12.489107"
       x2="63.397362"
       y2="5.4675598"
       id="linearGradient2499"
       xlink:href="#linearGradient4873"
       gradientUnits="userSpaceOnUse"
       gradientTransform="matrix(2.8014404,0,0,2.8013767,-142.25072,43.835172)" />
  </defs>
  <g
     id="layer1">
    <path
       d="M 63,53.499998 C 63,59.298988 49.120825,63.999998 32,63.999998 C 14.879175,63.999998 1,59.298988 1,53.499998 C 1,47.701008 14.879175,42.999998 32,42.999998 C 49.120825,42.999998 63,47.701008 63,53.499998 L 63,53.499998 z"
       id="path8836"
       style="opacity:0.3;fill:url(#radialGradient2507);fill-opacity:1;fill-rule:evenodd;stroke:none;stroke-width:0.99999988;stroke-linecap:butt;stroke-linejoin:round;marker:none;marker-start:none;marker-mid:none;marker-end:none;stroke-miterlimit:4;stroke-dasharray:none;stroke-dashoffset:0;stroke-opacity:1;visibility:visible;display:inline;overflow:visible" />
    <path
       d="M 32.000001,8.501793 C 17.93098,8.501793 6.5018092,19.930961 6.5018092,33.999983 C 6.5018092,48.069004 17.93098,59.498177 32.000001,59.498173 C 46.069017,59.498173 57.498201,48.069004 57.498188,33.999983 C 57.498188,19.930961 46.069017,8.501793 32.000001,8.501793 z"
       id="path2555"
       style="fill:url(#radialGradient2502);fill-opacity:1;stroke:url(#linearGradient2504);stroke-width:1;stroke-linecap:round;stroke-linejoin:round;stroke-miterlimit:4;stroke-dasharray:none;stroke-dashoffset:0;stroke-opacity:1" />
    <path
       d="M 56.499998,33.999131 C 56.499998,47.530543 45.530168,58.499998 32.000309,58.499998 C 18.469211,58.499998 7.4999998,47.530419 7.4999998,33.999131 C 7.4999998,20.468344 18.469211,9.5000007 32.000309,9.5000007 C 45.530168,9.5000007 56.499998,20.468344 56.499998,33.999131 L 56.499998,33.999131 z"
       id="path8655"
       style="opacity:0.4;fill:none;fill-opacity:1;fill-rule:nonzero;stroke:url(#linearGradient2499);stroke-width:0.99999994;stroke-miterlimit:4;stroke-dasharray:none;stroke-opacity:1" />
    <path
       d="M 36.058469,20.893267 C 36.058469,23.04235 34.322415,24.786534 32.183349,24.786534 C 30.044282,24.786534 28.308227,23.04235 28.308227,20.893267 C 28.308227,18.744183 30.044282,16.999999 32.183349,16.999999 C 34.322415,16.999999 36.058469,18.744183 36.058469,20.893267 z M 45.730233,25.033072 C 45.551001,25.062249 45.381644,25.133272 45.236493,25.240258 L 31.999596,27.314084 L 18.833991,25.211658 C 18.493659,24.963662 18.015169,24.8894 17.634889,25.073519 C 17.254607,25.257636 17.005307,25.694025 17.000064,26.109281 C 16.995264,26.524592 17.259336,26.882755 17.634889,27.076004 L 27.951425,30.364027 L 27.880864,37.91222 L 24.240576,49.216979 C 23.889971,49.73175 23.996831,50.392861 24.52272,50.736049 C 25.048632,51.079287 25.794422,50.974706 26.145062,50.459876 L 32.019756,38.257492 L 37.783557,50.438788 C 38.095221,50.972719 38.789961,51.158194 39.335351,50.853103 C 39.880741,50.548016 40.070221,49.867912 39.758568,49.333977 L 36.185851,37.980585 L 36.044801,30.874473 L 46.506093,27.03556 C 46.928771,26.745396 47.112395,26.196071 46.929324,25.723616 C 46.746238,25.251111 46.243103,24.97582 45.730198,25.033072 L 45.730233,25.033072 z"
       id="path2520"
       style="fill:#1f4b6b;fill-opacity:1;stroke:none" />
    <path
       d="M 36.058469,21.893268 C 36.058469,24.042351 34.322415,25.786535 32.183349,25.786535 C 30.044282,25.786535 28.308227,24.042351 28.308227,21.893268 C 28.308227,19.744184 30.044282,18 32.183349,18 C 34.322415,18 36.058469,19.744184 36.058469,21.893268 z M 45.730233,26.033073 C 45.551001,26.06225 45.381644,26.133273 45.236493,26.240259 L 31.999596,28.314085 L 18.833991,26.211659 C 18.493659,25.963663 18.015169,25.889401 17.634889,26.07352 C 17.254607,26.257637 17.005307,26.694026 17.000064,27.109282 C 16.995264,27.524593 17.259336,27.882756 17.634889,28.076005 L 27.951425,31.364028 L 27.880864,38.912221 L 24.240576,50.21698 C 23.889971,50.731751 23.996831,51.392862 24.52272,51.73605 C 25.048632,52.079288 25.794422,51.974707 26.145062,51.459877 L 32.019756,39.257493 L 37.783557,51.438789 C 38.095221,51.97272 38.789961,52.158195 39.335351,51.853104 C 39.880741,51.548017 40.070221,50.867913 39.758568,50.333978 L 36.185851,38.980586 L 36.044801,31.874474 L 46.506093,28.035561 C 46.928771,27.745397 47.112395,27.196072 46.929324,26.723617 C 46.746238,26.251112 46.243103,25.975821 45.730198,26.033073 L 45.730233,26.033073 z"
       id="path6668"
       style="fill:#ffffff;fill-opacity:1;stroke:none" />
  </g>
</svg>
